X:1
T:Title
%%score 1 { 2 | 3 }
L:1/8
Q:1/4=90
M:6/8
K:G
V:1 treble nm="Grand Piano, Soprano"
V:2 treble nm="Choir Pad, Sweet Is the Promise"
V:3 bass 
V:1
 [Gd]>[Gc][GB] [GB]>[FA]G | [EA]2 [EG] .[CE]3 | D>[DG][DG] [GB]>[G_B][G=B] | [Ge]2 [G^c] .[Fd]3 | %4
w: By~I.~T.~Davis * * * * *||||
 [Gd]>[Gc][GB] [GB]>[FA]G | [EA]2 [^GB] .[Ac]3 | [GB]>[DA][DG] [DF][DG][DA] | [FB]2 [FA] .G3 | %8
w: ||||
 [EB]>[EB][EB] [EG][FA][EG] | [^DF]2 [DF] .[DF]3 | [EA]>[E^G][EA] [Fc][GB]A | [GB]2 [G^c] .[Fd]3 | %12
w: ||||
 [Gd]>[Gc][GB] [GB]>[FA]G | [EA]2 [^GB] .[Ac]3 | [GB]>[DA][DG] [DF][DG][DA] | [FB]2 [FA] G3- | %16
w: ||||
 G3 z3 |] %17
w: |
V:2
 B,>ED D>CB, | C2 C[K:bass] .G,3 | B,>B,B, D>^CD | B,2 A, .A,3 | B,>[K:treble]ED D>CB, | C2 D .E3 | %6
 D>C[K:bass]B, A,B,C | D2 C .B,3 | G,>G,G, B,B,B, | B,2 B, .B,3 | C>B,A,[K:treble] DDD | %11
 D2 A, .A,3 | B,>ED D>CB, | C2 D .E3 | D>C[K:bass]B, A,B,C | D2 C B,3- | B,3 z3 |] %17
V:3
 G,>G,G, G,>G,G, | C,2 C, .C,3 | G,>G,G, G,>G,G, | .G,3 .D,3 | G,>G,G, D,>D,E, | C,2 B,, .A,,3 | %6
 D,>D,D, D,D,D, | D,2 D, .[G,,G,]3 | E,>E,E, E,^D,E, | B,,2 B,, .B,,3 | A,,>B,,C, D,E,F, | %11
 G,2 E, .D,3 | G,>G,G, D,>D,E, | C,2 B,, .A,,3 | D,>D,D, D,D,D, | D,2 D, [G,,G,]3- | [G,,G,]3 z3 |] %17

